Vector/symbolic/devices/audio-card-symbolic.svg

<svg xmlns="http://www.w3.org/2000/svg" width="16" height="16"><path d="M3 1C1 1 1 3 1 3v9c0 2 2 2 2 2h10c2 0 2-2 2-2V3s0-2-2-2zm3 3h5v5.5c0 .83-.67 1.5-1.5 1.5S8 10.33 8 9.5 8.67 8 9.5 8c.17 0 .35.04.5.09V6H7v3.5c0 .83-.67 1.5-1.5 1.5S4 10.33 4 9.5 4.67 8 5.5 8c.17 0 .35.04.5.09z" fill="#555555"/></svg>

<svg xmlns="http://www.w3.org/2000/svg" width="16" height="16" version="1.1">
 <path style="fill:#444444" d="M 3,1 C 1,1 1,3 1,3 V 12 C 1,14 3,14 3,14 H 13 C 15,14 15,12 15,12 V 3 C 15,3 15,1 13,1 Z M 6,4 H 11 V 9.5 C 11,10.33 10.33,11 9.5,11 8.67,11 8,10.33 8,9.5 8,8.67 8.67,8 9.5,8 9.67,8 9.85,8.04 10,8.09 V 6 H 7 V 9.5 C 7,10.33 6.33,11 5.5,11 4.67,11 4,10.33 4,9.5 4,8.67 4.67,8 5.5,8 5.67,8 5.85,8.04 6,8.09 Z"/>
</svg>
